svgs/materials/action/settings.svg

<svg xmlns="http://www.w3.org/2000/svg" enable-background="new 0 0 24 24" height="24" viewBox="0 0 24 24" width="24"><g><path d="M0,0h24v24H0V0z" fill="none"/><path d="M19.14,12.94c0.04-0.3,0.06-0.61,0.06-0.94c0-0.32-0.02-0.64-0.07-0.94l2.03-1.58c0.18-0.14,0.23-0.41,0.12-0.61 l-1.92-3.32c-0.12-0.22-0.37-0.29-0.59-0.22l-2.39,0.96c-0.5-0.38-1.03-0.7-1.62-0.94L14.4,2.81c-0.04-0.24-0.24-0.41-0.48-0.41 h-3.84c-0.24,0-0.43,0.17-0.47,0.41L9.25,5.35C8.66,5.59,8.12,5.92,7.63,6.29L5.24,5.33c-0.22-0.08-0.47,0-0.59,0.22L2.74,8.87 C2.62,9.08,2.66,9.34,2.86,9.48l2.03,1.58C4.84,11.36,4.8,11.69,4.8,12s0.02,0.64,0.07,0.94l-2.03,1.58 c-0.18,0.14-0.23,0.41-0.12,0.61l1.92,3.32c0.12,0.22,0.37,0.29,0.59,0.22l2.39-0.96c0.5,0.38,1.03,0.7,1.62,0.94l0.36,2.54 c0.05,0.24,0.24,0.41,0.48,0.41h3.84c0.24,0,0.44-0.17,0.47-0.41l0.36-2.54c0.59-0.24,1.13-0.56,1.62-0.94l2.39,0.96 c0.22,0.08,0.47,0,0.59-0.22l1.92-3.32c0.12-0.22,0.07-0.47-0.12-0.61L19.14,12.94z M12,15.6c-1.98,0-3.6-1.62-3.6-3.6 s1.62-3.6,3.6-3.6s3.6,1.62,3.6,3.6S13.98,15.6,12,15.6z"/></g></svg>

<?xml version="1.0" encoding="UTF-8" standalone="no"?>
<svg
   enable-background="new 0 0 24 24"
   height="24"
   viewBox="0 0 24 24"
   width="24"
   version="1.1"
   id="svg8"
   sodipodi:docname="settings.svg"
   inkscape:version="1.2 (dc2aeda, 2022-05-15)"
   xmlns:inkscape="http://www.inkscape.org/namespaces/inkscape"
   xmlns:sodipodi="http://sodipodi.sourceforge.net/DTD/sodipodi-0.dtd"
   xmlns="http://www.w3.org/2000/svg"
   xmlns:svg="http://www.w3.org/2000/svg">
  <defs
     id="defs12" />
  <sodipodi:namedview
     id="namedview10"
     pagecolor="#ffffff"
     bordercolor="#000000"
     borderopacity="0.25"
     inkscape:showpageshadow="2"
     inkscape:pageopacity="0.0"
     inkscape:pagecheckerboard="0"
     inkscape:deskcolor="#d1d1d1"
     showgrid="false"
     inkscape:zoom="9.8333333"
     inkscape:cx="11.949153"
     inkscape:cy="12"
     inkscape:window-width="1309"
     inkscape:window-height="456"
     inkscape:window-x="0"
     inkscape:window-y="25"
     inkscape:window-maximized="0"
     inkscape:current-layer="svg8" />
  <path
     d="M 0,0 H 24 V 24 H 0 Z"
     fill="none"
     id="path2" />
  <path
     d="m 19.14,12.94 c 0.04,-0.3 0.06,-0.61 0.06,-0.94 0,-0.32 -0.02,-0.64 -0.07,-0.94 L 21.16,9.48 C 21.34,9.34 21.39,9.07 21.28,8.87 L 19.36,5.55 C 19.24,5.33 18.99,5.26 18.77,5.33 L 16.38,6.29 C 15.88,5.91 15.35,5.59 14.76,5.35 L 14.4,2.81 C 14.36,2.57 14.16,2.4 13.92,2.4 H 10.08 C 9.84,2.4 9.65,2.57 9.61,2.81 L 9.25,5.35 C 8.66,5.59 8.12,5.92 7.63,6.29 L 5.24,5.33 C 5.02,5.25 4.77,5.33 4.65,5.55 L 2.74,8.87 C 2.62,9.08 2.66,9.34 2.86,9.48 l 2.03,1.58 C 4.84,11.36 4.8,11.69 4.8,12 c 0,0.31 0.02,0.64 0.07,0.94 l -2.03,1.58 c -0.18,0.14 -0.23,0.41 -0.12,0.61 l 1.92,3.32 c 0.12,0.22 0.37,0.29 0.59,0.22 l 2.39,-0.96 c 0.5,0.38 1.03,0.7 1.62,0.94 l 0.36,2.54 c 0.05,0.24 0.24,0.41 0.48,0.41 h 3.84 c 0.24,0 0.44,-0.17 0.47,-0.41 l 0.36,-2.54 c 0.59,-0.24 1.13,-0.56 1.62,-0.94 l 2.39,0.96 c 0.22,0.08 0.47,0 0.59,-0.22 l 1.92,-3.32 c 0.12,-0.22 0.07,-0.47 -0.12,-0.61 z M 12,15.6 c -1.98,0 -3.6,-1.62 -3.6,-3.6 0,-1.98 1.62,-3.6 3.6,-3.6 1.98,0 3.6,1.62 3.6,3.6 0,1.98 -1.62,3.6 -3.6,3.6 z"
     id="path4" />
</svg>
